web/packages/design/src/ResourceIcon/assets/googlevoice.svg

<svg width="72" height="72" viewBox="0 0 72 72" fill="none" xmlns="http://www.w3.org/2000/svg">
<g clip-path="url(#clip0_15942_7542)">
<path d="M37.9238 14.3979V31.6751C37.9238 32.7406 38.7877 33.6044 39.8531 33.6044H57.1303C57.1303 28.3061 55.9497 22.547 52.4655 19.0628C48.9812 15.5786 43.2222 14.3979 37.9238 14.3979Z" fill="#00832D"/>
<path d="M56.756 71.6431C48.6933 72.9677 38.9317 70.5776 29.5732 64.9914L32.7119 57.9941L39.8244 54.7114L50.9682 61.0752L56.756 71.6431Z" fill="#00832D"/>
<path d="M0.835149 15.7227C-0.489435 23.7853 1.87178 33.547 7.48687 42.9054L14.6857 39.5364L17.7668 32.6255L11.7198 22.7487L0.835149 15.7227Z" fill="#00832D"/>
<path d="M40.8034 0.000488281C39.2196 0.000488281 37.9238 1.29628 37.9238 2.88002V14.3981C48.5205 14.3981 57.1303 23.0079 57.1303 33.6046H68.6484C70.2322 33.6046 71.528 32.3088 71.528 30.7251C71.528 13.7646 57.7638 0.000488281 40.8034 0.000488281Z" fill="#34A853"/>
<path d="M68.7918 65.0205C70.318 63.552 70.3756 61.162 68.9358 59.6358L55.0565 44.835C53.5303 43.3953 51.1691 43.424 49.7005 44.8926L39.8525 54.7118L56.7554 71.6147C61.3338 70.9524 64.7605 68.9943 67.8704 65.8844L68.7918 65.0205Z" fill="#34A853"/>
<path d="M7.51562 42.9054C10.0496 47.1095 13.4187 51.3424 17.2484 55.1722C21.0782 59.002 25.3975 62.4286 29.6016 64.9626L39.8816 54.7115L17.7668 32.6255" fill="#34A853"/>
<path d="M25.167 25.4554L26.7507 23.9293C28.6224 22.0576 28.6224 18.9765 26.7507 17.1048L13.7065 4.06051C11.8348 2.18881 8.75367 2.18881 6.88198 4.06051L6.42125 4.37726C3.39774 7.40077 1.58364 11.3169 0.834961 15.7226L17.7666 32.6255L25.167 25.4554Z" fill="#34A853"/>
</g>
<defs>
<clipPath id="clip0_15942_7542">
<rect width="72" height="72" fill="white" transform="translate(0 0.000488281)"/>
</clipPath>
</defs>
</svg>

<svg xmlns="http://www.w3.org/2000/svg" width="72" height="72" fill="none" viewBox="0 0 72 72"><g clip-path="url(#a)"><path fill="#00832d" d="M37.924 14.398v17.277a1.93 1.93 0 0 0 1.93 1.93H57.13c0-5.299-1.18-11.058-4.665-14.542-3.484-3.484-9.243-4.665-14.541-4.665m18.832 57.245c-8.063 1.325-17.824-1.065-27.183-6.652l3.139-6.997 7.112-3.283 11.144 6.364zM.835 15.723c-1.324 8.062 1.037 17.824 6.652 27.182l7.199-3.369 3.08-6.91-6.046-9.877z"/><path fill="#34a853" d="M40.803 0a2.89 2.89 0 0 0-2.88 2.88v11.518c10.597 0 19.207 8.61 19.207 19.207h11.518a2.89 2.89 0 0 0 2.88-2.88C71.528 13.765 57.764 0 40.803 0m27.989 65.02a3.817 3.817 0 0 0 .144-5.384l-13.88-14.801a3.833 3.833 0 0 0-5.355.058l-9.849 9.819 16.903 16.903c4.579-.663 8.005-2.62 11.115-5.73z"/><path fill="#34a853" d="M7.516 42.905c2.534 4.204 5.903 8.437 9.732 12.267 3.83 3.83 8.15 7.257 12.354 9.79l10.28-10.25-22.115-22.086m7.4-7.171 1.584-1.526c1.871-1.871 1.871-4.952 0-6.824L13.706 4.06c-1.871-1.872-4.952-1.872-6.824 0l-.46.316C3.397 7.401 1.583 11.317.834 15.723l16.932 16.903z"/></g><defs><clipPath id="a"><path fill="#fff" d="M0 0h72v72H0z"/></clipPath></defs></svg>
